X: 10976
T: Drunken Duck
R: waltz
M: 3/4
K: Bmixolydian
M:7/8
|:fed fBBA|B/d/e Ac cBA|BFF EABF|ABdA BBB:|
|:ABd ABeA|BFAB edB|ABd ABeA|BFAB e d2:|

